X: 30
T:Princess Royal, Longborough 1
M:2/2
L:1/8
Q:1/4=140
A:Longborough
P:AAB(CB)2
K:GDor
P:A
dc|B2A2  G2dc|B2A2 G3d |e2c2 defe|d2c2 B3d |
c2B2  A2G2|FFFE D2dc|B2AG A2F2|G4   G2 ||
P:B
z^f|g2^f2 g2fg|a2d2 d3e |f2e2 d2cB|BABG F2F2|
G2GA  B2c2|defd g3g |f2d2 e3e |d2G2 c3c |
B2A2  G2F2|GABA G2dc|B2AG A2F2|G4   G2 ||
P:C
M:2/4 
L:1/8
d3c|\
M:2/2
B4    A4  |G4   d3c |B4   A4  |G4   d4  |\
e4    c4  |d2e2 f2e2|d4   B4  |
M:2/4 
L:1/8
B3d|\
M:4/4
c2B2  A2G2|FFFE D2dc|B2AG A2F2|G4   G2 ||
